X: 19
T:Hector the Hero
% Nottingham Music Database
S:Wolfstone
M:3/4
L:1/4
K:Bb
Bc|"Bb"d3/2c/2B|"Eb"g2f/2d/2|"Bb"f2-f/2g/2|"Bb"f2B/2c/2|"Gm"d2c/2B/2|\
"Eb"g2f/2d/2|"Cm"c2-c/2d/2|
"F"c2d/2f/2|"Gm"d3/2c/2B|"Eb"g2f/2d/2|"Bb"f2B|"Eb"b2g|"Bb"f2B/2d/2|"F"c2B|\
"Bb"B3-|"Bb"BBc||
"Gm"d3/2c/2B|"Eb"g2f/2d/2|"Bb"f2-f/2g/2|"Bb"f2B/2c/2|"Gm"d2c/2B/2|"Gm"g2f/2d/2\
|"Cm"c2-c/2d/2|
"F"c2d/2f/2|"Gm"d3/2c/2B|"Eb"g2f/2d/2|"Bb"f2B|"Eb"b2g|"Bb"f2B/2d/2|"F"c2B|\
"Bb"B3-|"Bb"Bdf||
"Eb"g2e/2g/2|"Eb"b2a/2g/2|"Bb"f2-f/2g/2|"Bb"f2d/2f/2|"Gm"g2f/2d/2|"Gm"f2B/2d/2\
|"Cm"c2-c/2d/2|"F"c2d/2f/2|
"Eb"g2e/2g/2|"Eb"b2a/2g/2|"Bb"f2e/2d/2|"Eb"b2e|"Bb"d2B/2d/2|"F"c2B|"Bb"B3-|\
"Bb"Bdf||
"Eb"g2e/2g/2|"Eb"b2a/2g/2|"Bb"f2-f/2g/2|"Bb"f2d/2f/2|"Gm"g2f/2d/2|"Gm"f2B/2d/2\
|"Cm"c2-c/2d/2|
"F"c2d/2f/2|"Gm"d2c/2B/2|"Eb"g2f/2d/2|"Bb"f2B|"Eb"b2g|"Bb"f2B/2d/2|"F"c2B|\
"Bb"B3-|"Bb"B:|<end>
<start>
